X:1
T:The Simmering Jig
M:6/8
L:1/8
Q:110
C:(c) Greg Anderson, 8 June 2000
R:Jig
H:A jig cooked up on a hot and sweltering day in Bordeaux for our
H:friends, John and Iz Simmer
K:D
afd gfe|dcd AFD|EFG ABd|ecA ceg| afd gfe|dcd AFD|EFG ABd|
1ecA d2 g:| 2ecA dcB||ABc def|g2 A ABA|ABc deg| f2 d ded|
B2 G Bcd|A2 F D2 F| EFG ABd|ecA dcB|ABc def|g2 A ABA|
ABc deg|f2 d ded|B2 G Bcd|A2 f a2 a|bag fec|d3 dfb||
